T: Shamrock, The
M: 9/8
L: 1/8
K: Gmaj
D |: G2 G BAG B/c/dB | GDG BAG FED | G2 G BAG Bcd | efg dBG FED :|
|: Bcd dBd dBd | Bcd dBG FED | BB/c/d dB/c/d dBG | e/f/ge dB/A/G FED :|
